X:1
T:Carol
T:Carol
T:Chuck Berry
C:Chuck Berry
Z:All Rights Reserved
L:1/8
M:4/4
K:G
V:1 treble 
%%MIDI program 4
V:1
 z4 z2 d2 ||S"C7" cG z4 z d | ccc_B c2 G=B- |"G" B8 | z4 z2 B2 |"D7" cBcB cBcB | cB d2 c2 BG- |1 %7
w: Oh|Car- ol don't|let him steal your heart a- way|_|I'm|gon- na learn to dance * it if|takes me all night and day|
w: |||||||
"G" G8- |"^To Verse" G4 z4 ||2"G" G8- | G6 z2!fine! || z4 z _BBB ||"G" _BBBB BGAG | B2 GB- B2 z2 | %14
w: _||||* * Come|in- to my ma- chine so we can|cruise on out _|
w: ||||Well if you|wa- na hear some mu- sic like the|boys are play- in|
 z8 | z4 z _BBB | _BBAG AGAG | _B2 GD- D2 z2 | z8 | z4 z _BBB |"C7" _BBBB AGAG | A2 G_B- B2 z2 | %22
w: |I know a|swing- in lit- tle joint where we can|jump and shout _||it's not too|far back off the high- way not so|long a ride _|
w: |* hold *|tight * catch your foot dont let him|carry it a- way||dont let the|heat * o- ver- come you when they|play so loud _|
 z8 | z4 z _BBB |"G" _BBBB AGAG | _B2 GD- D2 z2 | z8 | z2 z2 z GAG |"D7" _BBBB AGAG | %29
w: |you park your|car out in the o- pen you can|walk in- side _||a lit- tle|cu- tie takes your hat and you can|
w: |Oh don't the|mu- sic * in- tri- gue you when|they get a crowd||* if you|can't * * * dance I know you|
 _B2 GB- B2 z2 | z8 | z4 z _BBB |"G" BBBB AGAG | A2 GD- D2 z2!D.S.! |] %34
w: thank her ma'am *||* ev- ry|time you make the scene you find the|joint is jammed *|
w: wish you could *||I got my|eyes * on you ba- by 'cause you|dance so good. *|

